X:1
T:The Girl With the Flaxen Hair
T:The Girl With the Flaxen Hair
T:Debussy
C:Debussy
%%score { ( 1 4 ) | ( 2 3 ) }
L:1/8
Q:1/4=76
M:3/4
K:G
V:1 treble nm="Piano" snm="Pno."
V:4 treble 
V:2 bass 
V:3 bass 
V:1
!p! d2- dB/G/ EG/B/ | dB/G/ EG/B/ GG/E/ | GF/E/ D4- | D4 EG | A3 d BG/B/ | Ad B2 e2- | e2 B3 c | %7
 d2- dB/G/ EG/B/ | dB/G/ EG/B/ GG/E/ | GF/E/ D4- | D4 z B,/D/ | EG/A/ cd eg- | gf/e/ d2- d/c/B/A/ | %13
 G/A/B- B/A/G- G/F/E- | E/D/C- C/D/=F/A/ c/d/=f/a/ | c'b/a/ g4 | ba/g/ e2- ed/c/ | %17
 BA/G/ E2- EE/^C/ | E4 ^CE/C/ | E4 ^CE/C/ | EB,/^C/ E/F/^G/B/ [ce]2- | [ce](3d/e/d/ BA- A/G/F/E/ | %22
 E(3D/E/D/ B, A,2 G/A/ | B>G EG Bd | BG E2 G2 | B>G Bd eg | bg B2 D2 | z2 z2 d2- | %28
 d2- dB/G/ EG/B/ | dB/G/ EG/B/ GG/E/ | G2 F2 E2 | D6 | E>F E>D C>B, | A,>B, C>B, A,>B, | %34
 [A,C]2 D/E/G/A/ (3cde | !arpeggio![GBdg]6- | [GBdg]6 |] %37
V:2
 z6 | z2 z2 z [C,E,] | [G,,D,]6- | [G,,D,]4 z2 | [D,F,]4 [E,G,]2 | [D,F,]2 [B,,^D,]2 [E,^G,]2- | %6
 [E,G,]2 z2 z2 | [=F,B,]4 [G,^C]2 | [=F,B,]2 [G,C]2 E,2 | D,6 | G,F,/E,/ D,2- D,/C,/B,,/A,,/ | %11
 [G,,D,]6 | [D,G,B,]6 | C>D C>B, A,>G, | z2 G,,4 | [G,CE]6 | [A,C]2 [D,A,C]4 | %17
 [E,G,C]2 [F,A,]2 B,,2 | z B,,/^C,/ E,/F,/^G,/B,/ z2 | z B,,/^C,/ E,/F,/^G,/B,/ z2 | %20
 [E,^G,B,]4 [C,E,]2- | [C,E,]D, E,^C, A,,2 | C,D, E, ^C,2 D, | G,2 G,2 G,2 | G,E, C,2 C,2 | %25
 G,,2 D,2 G,2 | D,2 G,2 [D,F,]2 | [C,E,G,]6- | [C,E,G,]6 | [C,E,]4 z [C,E,] | [G,,D,]6- | %31
 [G,,D,]3 C B,A, | G,/A,/B,- B,/A,/G,- G,/F,/E,- | E,/D,/E,- E,/D,/E,- E,/D,/E,- | %34
 E,/G,/A,/C/ z2 z2 | !arpeggio![G,B,D]6- | [G,B,D]6 |] %37
V:3
 x6 | x6 | x6 | x6 | x6 | x6 | x6 | x6 | x4 [B,D][A,C] | [G,B,]4 z/ C/B,/A,/ | x6 | x6 | x6 | %13
 E4 C2 | F,6 | x6 | x6 | x6 | [E,^G,B,]6 | [E,^G,B,]6 | x6 | x6 | x6 | x6 | x6 | x6 | x6 | x6 | %28
 x6 | x6 | x6 | x6 | x6 | x6 | x6 | x6 | x6 |] %37
V:4
 x6 | x6 | x6 | x6 | x6 | x6 | x6 | x6 | x6 | x6 | x6 | x6 | x6 | x6 | x6 | x6 | x6 | x6 | x6 | %19
 x6 | x6 | x6 | x6 | x6 | x6 | x6 | x6 | [EG]6- | [EG]2 x4 | x6 | x6 | x6 | C6 | x6 | x6 | x6 | %36
 x6 |] %37

